X: 1
T:Pipe Major Lee's Contention
M:6/8
L:1/8
Q:80
C:R. MacNeil
S:Jig
K:HP
|1 {Gdc}d2|2 {gdc}d2{e}A{g}A{d}A{e}A|
{g}dcd{g}fed|
{gcd}c2{e}A{g}A{d}A{e}A|  !
{g}ece{g}edc|
{Gdc}d2{e}A{g}A{d}A{e}A|
{g}dcd{g}fed|  !
{g}ce{A}e{g}A{d}A{e}A|
{g}edc{Gdc}d3:| |:
{gdc}d3{g}f2g|  !
af{e}f{g}fed|
{gcd}c3{g}e2f|
{a}ge{A}e{g}edc|  !
{Gdc}d3{g}f2g|
af{e}f{g}fed|
{g}ce{A}e{g}A{d}A{e}A|  !
{g}edc{Gdc}d3:| |:
{g}Ad{c}d{g}d3|
{g}def{g}fed|  !
{g}A{d}c{G}c{g}c3|
{g}A{d}c{G}c{g}edc|
{g}Bd{G}d{g}G{d}B{G}B|  !
{g}A{d}c{G}c{g}e2d|
{g}ce{A}e{g}A{d}A{e}A|
{g}edc{Gdc}d3:| |:  !
af{e}f{g}f3|
af{e}fadf|
{a}ge{A}e{g}e2f|  !
{a}gce{a}gfe|1
af{e}f{g}f3|
af{e}f{g}Adf|  !
{g}ce{A}e{g}A{d}A{e}A|
{g}edc{Gdc}d3:|2
af{e}f{g}Adf|  !
{a}ge{A}e{g}A{d}ce|
{g}ce{A}e{g}A{d}A{e}A|
{g}edc{Gdc}d3:|  !
